X: 2
T: Donnybrook Fair
R: jig
M: 6/8
L: 1/8
K: Gmaj
|:~G3 ~A3|B2e dBA|~B3 GAB|AGE EDE|
~G3 ~A3|B2e dBA|B2B GAB|AGF G3:|
|:~g3 fed|e/f/ge dBA|B2e dBA|Bed e2d|
[1 ~g3 fed|e/f/ge dBA|BAB GAB|AGF G2d:|
[2 gfe agf|gfe dBA|B2B GAB|AGF G3||


Tune 26	Setting 26

